img/icon-clone.svg

<svg fill="none" height="24" viewBox="0 0 24 24" width="24" xmlns="http://www.w3.org/2000/svg"><g stroke="#fff" stroke-linecap="round" stroke-linejoin="round" stroke-width="2"><path d="m8.33333 14.332h-4c-.736 0-1.33333-.5973-1.33333-1.3333v-9.33334c0-.736.59733-1.33333 1.33333-1.33333h5.33334l2.66663 2.66667v1.33333"/><path d="m9 2.33203v2.66667h2.6667"/><path d="m21.0001 12.3346v8c0 .736-.5974 1.3334-1.3334 1.3334h-6.6666c-.736 0-1.3334-.5974-1.3334-1.3334v-9.3333c0-.736.5974-1.33333 1.3334-1.33333h5.3333z"/><path d="m18.3333 9.66797v2.66663h2.6666"/></g></svg>

<svg width="24" height="24" viewBox="0 0 24 24" fill="none" xmlns="http://www.w3.org/2000/svg">
<path d="M8.33333 14.332H4.33333C3.59733 14.332 3 13.7347 3 12.9987V3.66536C3 2.92936 3.59733 2.33203 4.33333 2.33203H9.66667L12.3333 4.9987V6.33203" stroke="white" stroke-width="2" stroke-linecap="round" stroke-linejoin="round"/>
<path d="M9 2.33203V4.9987H11.6667" stroke="white" stroke-width="2" stroke-linecap="round" stroke-linejoin="round"/>
<path d="M21.0001 12.3346V20.3346C21.0001 21.0706 20.4027 21.668 19.6667 21.668H13.0001C12.2641 21.668 11.6667 21.0706 11.6667 20.3346V11.0013C11.6667 10.2653 12.2641 9.66797 13.0001 9.66797H18.3334L21.0001 12.3346Z" stroke="white" stroke-width="2" stroke-linecap="round" stroke-linejoin="round"/>
<path d="M18.3333 9.66797V12.3346H20.9999" stroke="white" stroke-width="2" stroke-linecap="round" stroke-linejoin="round"/>
</svg>
